X:165
T:Rioters, The
M:C
L:1/8
B:Thompson's Compleat Collection of 200 Favourite Country Dances, vol. 2 (London, 1765)
Z:Transcribed and edited by Flynn Titford-Mock, 2007
Z:abc's:AK/Fiddler's Companion
K:G
GABc defg | dBAG AFED | GABc defg | dBcA G2 [G,2G2] :|
|: dBdB dBdB | cAcA cAcA | dBdB dBdBc | BdcB "tr"B2 A2 :|
|: gdcB gdcB | ecBA ecBA | gdcB gdcB | AcDF G2 [G,2G2 :|

